_production/img/house.svg

<svg xmlns="http://www.w3.org/2000/svg" width="32" height="32" viewBox="0 0 32 32"><path d="M15.002 8.69l6.502-6.995 6.807 8.57 1.37.133L21.96.116l-10.99 2.71-6.798 7.19"/><path d="M27.445 18.734v-8.47l-5.98-7.598-6.157 6.626-10.57 1.293v8.145L0 22.67l2.813.038v7.84l12.307 1.336 7.522-.766v-7.73l4.434-.084v7.363l2.213-.226v-7.56H32l-4.555-4.146zm-21.443-6.27l3.033-.3v3.46l-3.033.19v-3.35zm3.132 14.682l-3.04-.176v-3.354l3.04.065v3.466zm0-5.623l-3.04.002V18.17l3.04-.112v3.465zm1.345-9.54l3.34-.333v3.635l-3.34.212v-3.515zm3.45 15.403l-3.35-.19v-3.52l3.35.07v3.64zm0-5.907l-3.35.004v-3.52l3.35-.124v3.64zm2.737-9.868l3.622.363v3.544l-3.623-.23v-3.678zm.122 6.08l3.612.144v3.54l-3.613-.01v-3.673zm3.788 9.43l-3.602.206v-3.666l3.602-.073v3.53zm.678-18.086c-.686-.09-1.247-1.006-1.247-2.043s.562-1.78 1.246-1.664c.674.114 1.215 1.026 1.215 2.037 0 1.01-.54 1.758-1.214 1.67zm1.115 3.176l3.228.322v3.35l-3.227-.205V12.21zm3.328 9.203l-3.218-.008v-3.463l3.218.126v3.345z"/></svg>

<?xml version="1.0" encoding="iso-8859-1"?>
<!-- Generator: Adobe Illustrator 16.0.0, SVG Export Plug-In . SVG Version: 6.00 Build 0)  -->
<!DOCTYPE svg PUBLIC "-//W3C//DTD SVG 1.1//EN" "http://www.w3.org/Graphics/SVG/1.1/DTD/svg11.dtd">
<svg version="1.1" id="Capa_1" xmlns="http://www.w3.org/2000/svg" xmlns:xlink="http://www.w3.org/1999/xlink" x="0px" y="0px"
	 width="32px" height="32px" viewBox="0 0 32 32" style="enable-background:new 0 0 32 32;" xml:space="preserve">
<g>
	<g>
		<polygon points="15.002,8.691 21.504,1.695 28.311,10.265 29.68,10.398 21.96,0.116 10.971,2.825 4.172,10.016 		"/>
		<path d="M27.445,18.734v-8.47l-5.979-7.598l-6.158,6.626L4.737,10.585v8.145L0,22.671l2.813,0.037l-0.001,7.84l12.308,1.336
			l7.522-0.766v-7.73l4.434-0.084v7.363l2.213-0.226v-7.56H32L27.445,18.734z M6.002,12.464l3.033-0.301v3.462l-3.033,0.19V12.464z
			 M9.134,27.146L6.095,26.97v-3.354l3.039,0.065V27.146z M9.134,21.523l-3.039,0.002v-3.354l3.039-0.113V21.523z M10.479,11.982
			l3.341-0.332v3.635l-3.341,0.212V11.982z M13.929,27.386l-3.348-0.191v-3.518l3.348,0.07V27.386z M13.929,21.479l-3.348,0.005
			v-3.519l3.348-0.125V21.479z M16.667,11.612l3.622,0.363v3.544l-3.622-0.229V11.612z M16.789,17.693l3.613,0.143v3.54
			l-3.613-0.009V17.693z M20.578,27.121l-3.602,0.207v-3.666l3.602-0.073V27.121z M21.256,9.036
			c-0.686-0.091-1.247-1.006-1.247-2.043s0.563-1.781,1.247-1.664c0.674,0.115,1.215,1.027,1.215,2.038
			C22.471,8.378,21.93,9.125,21.256,9.036z M22.371,12.212l3.227,0.322v3.349l-3.227-0.204V12.212z M25.698,21.415l-3.218-0.008
			v-3.463l3.218,0.126V21.415z"/>
	</g>
</g>
<g>
</g>
<g>
</g>
<g>
</g>
<g>
</g>
<g>
</g>
<g>
</g>
<g>
</g>
<g>
</g>
<g>
</g>
<g>
</g>
<g>
</g>
<g>
</g>
<g>
</g>
<g>
</g>
<g>
</g>
</svg>
